X:1
T:IX GARCI PEREZ
T:IX GARCI PEREZ 
T:BALLADE HÉROÏQUE
T:Holmès, Augusta
T:A Mademoiselle MARIE HUET
T:VINGT MELODIES
T:(Holmès)
C:Holmès, Augusta
Z:(Holmès)
%%score 1 { ( 2 4 ) | ( 3 5 ) }
L:1/8
Q:1/4=114
M:3/8
K:C
V:1 treble nm="CHANT"
V:2 treble nm="PIANO"
V:4 treble 
V:3 bass 
V:5 bass 
V:1
"^Allº moderato. (Mouvement de Seguidille)" z3 ||[M:2/4] z2 z z ||[M:3/8] z3 ||[M:2/4] z4 || %4
w: ||||
[M:3/8] z3 ||[M:2/4] z4 ||[M:3/8] z3 ||[M:2/4] z4 ||[M:3/4] z6 | z6 |"^CHANT" z6 | z6 | %12
w: ||||||||
!f! e3/2 e/ e3/2 e/ d c/ d/ | e2- e z !^!d !^!e | c A/ B/ c3 A ||[M:4/4] B2 E2- E z z2 || %16
w: Don Gar- ci Pe- rez de Var-|gas, _ Le plus|fier che- va- lier d'Es-|pa- gne, _|
[M:3/4] z2 z2 z E | e2 e3/2 e/ d c/ d/ | e3/2 c/ A2- A B/ c/ | d e/ f/ e2{de} d2 | c4- c z | %21
w: Bra-|vant Mo- res et re- né-|gats, Che- vauche * à tra-|vers la cam- pa- *|gne! _|
 z2 z2 z E | B3/2 B/ B3/2 B/ c3/2 A/ | B2- B z c B/ A/ | B/ G/ A/ B/ G2({^FG)} F2 | E2- E z z E | %26
w: A|ses cô- tés che- mine aus-|si _ Un com- pa-|gnon d'hu- meur trem- blan- *|te! _ Pe-|
 e3/2 e/ e z/ e/ (3(d c) d | e2- e z d/ d/ e/ f/ | !breath!e f/ e/ (!^!d2({ed)} !^!c2 || %29
w: rez, dit- il, sor- tons * d'i-|ci! _ Cet- te pro- me-|nade est trop len- *|
[M:2/4]({dc)} !^!B2({cB)} !^!A2 ||[M:3/4] !^!e2- e>f !^!e>f | !^!e2- e>f !^!e>f | e2) z2 z z/ E/ | %33
w: |||te! Les|
 B2- B/ B/ B/ B/ c z/ A/ | B2- B B/ B/ c B/ A/ ||[M:2/4] B G({^FG)} F2 ||[M:3/4] E4 z2 || %37
w: Mo- * res nous tue- ront, c'est|clair, _ Et je tiens à ma|vie, en som-|me!|
[K:A]!f! e2 z c/ e/ f/ f/ c/ f/ | e c/ A/ F2- F G/ A/ | B d c2({Bc)} B2 ||[K:C][M:3/8] A2 z || %41
w: Moi, j'ai be- soin de pren- dre|l'air! dit Pe- rez _ en quit-|tant son heau- *|me!|
[M:2/4] z4 ||[M:3/8] z3 ||[M:2/4] z4 ||[M:3/8] z3 ||[M:2/4] z4 ||[M:3/8] z3 ||[M:2/4] z4 || %48
w: |||||||
[M:3/4]!mf! e3/2 e/ e2 d/ d/ c/ d/ | e2- e z d e | c A/ B/ c3 A ||[M:4/4] B2 E4- E z ||[M:3/4] z6 | %53
w: A ces mots, d'un che- min cou-|vert, _ Cui- ras-|sés et por- tant la|lan- ce, _||
 e e/ e/ e2 d c/ d/ | e4 c/ A/ B/ c/ | d e/ f/ e2({de)} d2 | c4- c z | z2 z2 z z/!f! A/ | %58
w: Dix ca- va- liers au tur- ban|vert Sor- tent un par|un, en si- len- *|ce! _|Saint|
 e2 B z c/ c/ B/ A/ | B/ z/ A/ B/ e2- e/ z/!p! c | B A/ B/ G2({^FG)} F2 | E4- E z | %62
w: Jac- ques! je l'a- vais bien|dit! Sau- vons- nous! _ Et|l'âme é- per- du- *|e, _|
 e e/ e/ e2 d c/ d/ | e c/ B/ A2 z c | d e/ f/ (e2({fe)} d2 |({ed)} c2({dc)} B2({cB)} A2 | %66
w: Le com- pa- gnon, traître et mau-|dit, dis- pa- rait à|bride a- bat- tu- *||
({BA)} !^!e2- e>f !^!e>f | !^!e2- e>f !^!e>f) | !^!e4- e z | %69
w: ||e! _|
!f!"^(avec un éclat de rire)" e z/ E/ (3G A B !tenuto!c !tenuto!d | %70
w: Bon! tant mieux! dit Gar- ci Pe-|
{/d} (cB) z/ B/ A/ B/ c/ B/ A/ c/ | (B4({AB)} A2 | E4-) E z ||[K:A] e2 E/ A/ c/ e/ f z/ a/ | %74
w: rez, _ Rien ne me gêne au- tant qu'un|lâ- *|che! _|Et de- vant l'en- ne- mi, tout|
 e z/ c/ A2- A F/ G/ | A B/ d/ c2({Bc)} B2 ||[K:C][M:3/8] A2 z ||[M:2/4] z4 ||[M:3/8] z3 || %79
w: près, Il passe * en fri-|sant sa mous- ta- *|che!|||
[M:2/4] z4 ||[M:3/8] z3 ||[M:2/4] z4 ||[M:3/8] z3 ||[M:2/4] z2 z!f! e || %84
w: ||||Un|
[M:3/4] e3/2 e/ e2 d c/ d/ | e2- e z d e | c/ B/ A/ B/ c4 ||[M:4/4] B2 E6- ||[M:3/4] E2 z2 z E | %89
w: coq aux yeux de di- a-|mant _ Bril- le|sur son bou- cli- er|som- bre;|_ Et|
 e e/ e/ e2 (3(dc) d | e2- e/ z/ c A B/ c/ | d e/ f/ e2({de)} d2 | c2- c z z2 | z2 z2 E3/2 E/ | %94
w: les Sar- ra- zins, pru- * dem-|ment, _ N'ont point a- van-|cé, bien qu'en nom- *|bre! _|Mais si-|
 B3 B/ B/ c3/2 A/ | B2- B B c z/ A/ | B/ G/ A/ B/ G2({^FG)} F2 | E4- E z | e e/ e/ e2 d c/ d/ | %99
w: tôt le guer- rier pas-|sé, _ L'un d'eux, du|bout de son é- pé- *|e, _|Tout tri- om- phant a ra- mas-|
 e3/2 c/ A2- A B/ c/ | d (e/f/) (e2({fe)} d2 |({ed)} c2({dc)} B2({cB)} A2 |({BA)} e2- e>f !^!e>f | %103
w: sé L'écharpe * * à ses|pieds tombé- * * *|||
 !^!e2- e>f !^!e>f | e2-) e z z2 |!ff! (g3/2 E/) G z A/ B/ c/ d/ | f4- f/ z/ f | %107
w: |e! _|Sang du Christ! tu ne l'au- ras|pas, _ L'é-|
 f2 G2 A/ B/ c/ d/ | (e>^f) e2- e z ||[K:A] e3/2 c/ e z/ e/ f c/ A/ | e c/ A/ F3 G/ A/ | B d e4 | %112
w: char- pe de ma Da- me|blon- * de! _|Et Gar- ci, la fleur des com-|bats, s'est ru- é Sur la|gent im- mon-|
 A2 z4 |"^(avec une joie exubérante)" z2 z2!f! (3z c d ||[M:2/4] (3e f g !tenuto!a !tenuto!c | %115
w: de!|Chan- tez,|gloire à Gar- ci Pe-|
 !tenuto!e4- | e2- e z | z2 (3z c d | (3e f g !tenuto!a !tenuto!c | !tenuto!e4- | e2- e z | %121
w: rez!|_ _|Chan- tez,|gloire à Gar- ci Pe-|rez!|_ _|
 z2 (3z c d | (3e f =g !tenuto!a !tenuto!c | f2- (3:2:4f/ z/ F G | !tenuto!^A !tenuto!B (3c d e | %125
w: Chan- tez,|gloire à Gar- ci Pe-|rez! _ Car à|l'heure où l'astre é- tin-|
 d B z"^en riant" c | (3e c d (3e f c | (eB) z c | (3e c d (3e f c | e B (3z!f! e f | %130
w: cel- le, Dix|tê- tes aux fronts la- cé-|rés _ Sai-|gnaient au pom- meau de sa|sel- le! Ay! Ay!|
 (3g f e !tenuto!^d !tenuto!f | (3z e d .c .e | (3z B c d f | (ce)!f! (3z e f | (3g f e ^d f | %135
w: Ay! chan- tez gloi- re,|chan- tez gloi- re|à Gar- ci Pe-|rez! _ Ay! Ay!|Ay! chan- tez gloi- re,|
 (3z e =d c e | (3z B c d f | c z/!ff! e/ e2 | (3z B c !tenuto!d !tenuto!f | c z/ e/ e z/ A/ || %140
w: chan- tez gloi- re|à Gar- ci Pe-|rez! Ol- lé!|à Gar- ci Pe-|rez Ol- lé! chan-|
[M:3/4] (!^!f>=g !^!f>g !^!f>g | f) z/!ff! f/ a2- a A/ B/ | c B/ A/ !^!e3 !^!e | %143
w: tez _ _ _ _ _|_ Ol- lé! _ chan- tez|gloire à Gar- ci Pe-|
 !^!A2 z2 !fermata!z2 |] %144
w: rez!!|
V:2
!f! z ([A,CE]/E,/) [A,CE] ||[M:2/4]!mf! z !arpeggio![F,A,DF] z !arpeggio![G,B,FG] || %2
[M:3/8]!f! z ([G,CE]/E,/) [G,CE] ||[M:2/4]!mf! z !arpeggio![D,A,B,D] z !arpeggio![E,^G,B,E] || %4
[M:3/8]!f! z ([A,^CE]/E,/) [A,CE] ||[M:2/4]!mf! z !arpeggio![F,A,DF] z !arpeggio![G,B,FG] || %6
[M:3/8]!f! z ([G,CE]/E,/) [G,CE] ||[M:2/4]!mf! z !arpeggio![D,A,B,D] z !arpeggio![E,^G,B,E] || %8
[M:3/4]!f! z (3A/E/C/ A,!arpeggio!.[CEA] z!mf! !arpeggio!.[B,DGB] | %9
!f! z (3A/E/C/ .A,!arpeggio!.[CEA] z!mf! !arpeggio!.[G,B,DG] | %10
!f! z (3A/E/C/ A,!arpeggio!.[CEA] z!mf! !arpeggio!.[B,DGB] | %11
!f! z (3A/E/C/ A,!arpeggio!.[CEA] z!mf! !arpeggio!.[G,B,DG] | %12
!p! z (3A/E/C/ A,!arpeggio!.[CEA] z !arpeggio!.[G,B,DG] | %13
 z (3A/E/C/ A,!arpeggio!.[CEA] z !arpeggio!.[G,B,EG] | %14
 z (3A/E/C/ A,!arpeggio!.[CEA] z !arpeggio!.[CEAc] || %15
[M:4/4] z !arpeggio![B,^DAB] z!mp! (3B/^G/E/ B,!arpeggio!.[EGB] z !arpeggio!.[CEAc] || %16
[M:3/4] z (3B/^G/E/ B,!arpeggio!.[EGB] z !arpeggio!.[B,EGB] | %17
!p! z (3A/E/C/ A,!arpeggio!.[CEA] z !arpeggio!.[G,B,DG] | %18
 z (3A/E/C/ A,!arpeggio!.[CEA] z !arpeggio!.[CEAc] | %19
 z !arpeggio!.[A,DFA] z !arpeggio!.[CEG] z !arpeggio!.[B,FGB] | %20
!f! z (3c/G/E/ C!arpeggio!.[EGc] z!mf! !arpeggio!.[CF_Ac] | %21
!f! z (3c/G/E/ C!arpeggio!.[EGc] z!mf! !arpeggio!.[CEAc] | %22
 z (3B/^G/E/ B,!arpeggio!.[EGB] z !arpeggio!.[CEAc] | %23
 z (3B/^G/E/ B,!arpeggio!.[EGB] z !arpeggio!.[A,CEA] | %24
 z (3B/G/E/ B,!arpeggio!.[EGB] z !arpeggio!.[B,^DAB] | %25
 z (3B/^G/E/ B,!arpeggio!.[EGB] z !arpeggio!.[B,EGB] | %26
 z (3c/A/E/ C!arpeggio!.[EAc] z !arpeggio!.[B,DGB] | %27
 z (3c/A/E/ C!arpeggio!.[EAc] z !arpeggio!.[B,DGB] | %28
!mp! z"_dim." !arpeggio![CEAc] z !arpeggio![FAdf] z !arpeggio![EAce] || %29
[M:2/4]!p! z !arpeggio![DFAd] z !arpeggio![C^FAc] || %30
[M:3/4] z (3B/^G/E/ B,!arpeggio!.[EGB] z !arpeggio!.[CEAc] | %31
 z (3B/^G/E/ B,!arpeggio!.[EGB] z !arpeggio!.[CEAc] | %32
 z (3B/^G/E/ B,!arpeggio!.[EGB] z !arpeggio!.[B,EGB] | %33
 z (3B/^G/E/ B,!arpeggio!.[EGB] z !arpeggio!.[CEAc] | %34
 z (3B/^G/E/ B,!arpeggio!.[EGB] z !arpeggio!.[CEAc] || %35
[M:2/4] z !arpeggio![B,EB] z !arpeggio![B,^DAB] || %36
[M:3/4] z (3B/^G/E/ B,!arpeggio!.[EGB] z !arpeggio!.[B,EGB] || %37
[K:A]!f! !arpeggio![CEAc] z z2 !arpeggio![FAcf] z | !arpeggio![CEAc] z !arpeggio![FAcf] z z2 | %39
 !arpeggio![DFAB] z !arpeggio![CEAc] z !arpeggio![B,DGB] z || %40
[K:C][M:3/8]!f! z ([A,CE]/E,/) [A,CE] ||[M:2/4]!mf! z !arpeggio![F,A,DF] z !arpeggio![G,B,FG] || %42
[M:3/8]!f! z ([G,CE]/E,/) [G,CE] ||[M:2/4]!mf! z !arpeggio![D,A,B,D] z !arpeggio![E,^G,B,E] || %44
[M:3/8]!f! z ([A,^CE]/E,/) [A,CE] ||[M:2/4]!mf! z !arpeggio![F,A,DF] z !arpeggio![G,B,FG] || %46
[M:3/8]!f! z ([G,CE]/E,/) [G,CE] ||[M:2/4]!mf! z !arpeggio![D,A,B,D] z !arpeggio![E,^G,B,E] || %48
[M:3/4]!p! z (3A/E/C/ A,!arpeggio!.[CEA] z !arpeggio!.[B,DFB] | %49
 z (3A/E/C/ A,!arpeggio!.[CEA] z !arpeggio!.[G,B,EG] | %50
 z (3A/E/C/ A,!arpeggio!.[CEA] z !arpeggio!.[CEAc] || %51
[M:4/4] z !arpeggio![B,^DAB] z (3B/^G/E/ B,!arpeggio!.[EGB] z !arpeggio!.[CEAc] || %52
[M:3/4]!mf! z (3B/^G/E/ B,!arpeggio!.[EGB] z !arpeggio!.[B,EGB] | %53
!mp! z (3A/E/C/ A,!arpeggio!.[CEA] z !arpeggio!.[G,B,DG] | %54
 z (3A/E/C/ A,!arpeggio!.[CEA] z !arpeggio!.[CEAc] | %55
 z !arpeggio!.[A,DFA] z !arpeggio!.[CEG] z !arpeggio!.[B,FGB] | %56
 z (3c/G/E/ C!arpeggio!.[EGc] z !arpeggio!.[CF_Ac] | %57
!mf! z (3c/G/E/ C!arpeggio!.[EGc] z !arpeggio!.[CEAc] | %58
!mp! z (3B/^G/E/ B,!arpeggio!.[EGB] z !arpeggio!.[CEAc] | %59
 z (3B/^G/E/ B,!arpeggio!.[EGB]!p! z !arpeggio!.[A,CEA] | %60
 z (3B/G/E/ B,!arpeggio!.[EGB] z !arpeggio!.[B,^DAB] | %61
 z (3B/^G/E/ B,!arpeggio!.[EGB] z !arpeggio!.[B,EGB] | %62
 z (3c/A/E/ C!arpeggio!.[EAc] z !arpeggio!.[B,DGB] | %63
 z (3c/A/E/ C!arpeggio!.[EAc] z !arpeggio!.[B,DGB] | %64
"_dim." z !arpeggio![FAdf] z !arpeggio![EAce] z!mf! !arpeggio![DFAd] | %65
!mp! z !arpeggio![CEAc] z !arpeggio![B,DAB] z !arpeggio![B,^DAB] | %66
 z (3B/^G/E/ B,!arpeggio!.[EGB] z !arpeggio!.[CEAc] | %67
 z (3B/^G/E/ B,!arpeggio!.[EGB] z !arpeggio!.[CEAc] | %68
 z!<(! (3B/^G/E/ B,!<)!!arpeggio!.[EGB] z !arpeggio!.[B,EGB] | %69
!f! !arpeggio![CE=Gc] z!p! (3.G.A.B !tenuto!c!tenuto!d |!>(! f2!>)! x4 | %71
 z (3B/A/F/ B,!arpeggio!.[FAB] z !arpeggio!.[C^FAc] | %72
 z (3B/^G/E/ B,!arpeggio!.[EGB] z !arpeggio!.[B,EGB] || %73
[K:A]!f! !arpeggio![CEAc] z z2 !arpeggio![FAcf] z | !arpeggio![CEAc] z !arpeggio![FAcf]2 z2 | %75
!mf! !arpeggio!.[DFA]!arpeggio!.[DFAB] !arpeggio![CEAc] z !arpeggio![B,DGB] z || %76
[K:C][M:3/8] z ([A,CE]/E,/) [A,CE] ||[M:2/4]!mf! z !arpeggio![F,A,DF] z !arpeggio![G,B,FG] || %78
[M:3/8]!f! z ([G,CE]/E,/) [G,CE] ||[M:2/4]!mf! z !arpeggio![D,A,B,D] z !arpeggio![E,^G,B,E] || %80
[M:3/8]!f! z ([A,^CE]/E,/) [A,CE] ||[M:2/4]!mf! z !arpeggio![F,A,DF] z !arpeggio![G,B,FG] || %82
[M:3/8]!f! z ([G,CE]/E,/) [G,CE] ||[M:2/4]!mf! z !arpeggio![D,A,B,D] z !arpeggio![E,^G,B,E] || %84
[M:3/4] z (3A/E/C/ A,!arpeggio!.[CEA] z !arpeggio![G,B,DG] | %85
 z (3A/E/C/ A,!arpeggio!.[CEA] z !arpeggio![G,B,EG] | %86
 z (3A/E/C/ A,!arpeggio!.[CEA] z !arpeggio![CEAc] || %87
[M:4/4] z !arpeggio![B,^DAB] z (3B/^G/E/ B,!arpeggio!.[EGB] z !arpeggio![CEAc] || %88
[M:3/4] z (3B/^G/E/ B,!arpeggio!.[EGB] z !arpeggio![B,EGB] | %89
 z (3A/E/C/ A,!arpeggio!.[CEA] z !arpeggio![G,B,DG] | %90
 z (3A/E/C/ A,!arpeggio!.[CEA] z !arpeggio![CEAc] | %91
 z !arpeggio![A,DFA] z !arpeggio![CEG] z !arpeggio![B,FGB] | %92
 z!f! (3c/G/E/ C!arpeggio!.[EGc] z !arpeggio![CF_Ac] | %93
 z (3c/G/E/ C!arpeggio!.[EGc]!mf! z !arpeggio![CEAc] | %94
 z (3B/^G/E/ B,!arpeggio!.[EGB] z !arpeggio![CEAc] | %95
 z (3B/^G/E/ B,!arpeggio!.[EGB] z !arpeggio![A,CEA] | %96
 z (3B/G/E/ B,!arpeggio!.[EGB] z !arpeggio![B,^DAB] | %97
 z (3B/^G/E/ B,!arpeggio!.[EGB] z !arpeggio![B,EGB] | %98
 z (3c/A/E/ C!arpeggio!.[EAc] z !arpeggio![B,DGB] | %99
 z (3c/A/E/ C!arpeggio!.[EAc] z !arpeggio![CEAc] | %100
 z !arpeggio![FAdf] z !arpeggio![EAce] z !arpeggio![DFAd] | %101
 z !arpeggio![CEAc] z !arpeggio![B,DAB] z !arpeggio![B,^DAB] | %102
 z (3B/^G/E/ B,!arpeggio!.[EGB] z !arpeggio![CEAc] | %103
 z (3B/^G/E/ B,!arpeggio![EGB] z !arpeggio![CEAc] | %104
 z (3B/^G/E/ B,!arpeggio![EGB] z !arpeggio![B,EGB] |!ff! [EGce]>E G2 .A/.B/.c/.d/ |!f! !^!f4 f2 | %107
 f2- f z z2 | ([^Gde]>^f) [Gde]2- [Gde] z ||[K:A]!ff! !arpeggio![Ace] z z2 !arpeggio![Acfa] z | %110
 !arpeggio![Ace] z !arpeggio![Acfa] z z2 | %111
 !arpeggio![DFAB] z !arpeggio![CEAc] z !arpeggio![B,DGB] z | %112
 !arpeggio![A,CEA]!ff! ([A,CE]/E,/) [A,CE]!arpeggio!.[E,A,CE] z !arpeggio!.[E,A,CE] | %113
 z ([A,CE]/E,/) [A,CE]!arpeggio![E,A,CE] (3z [Ac][Bd] || %114
[M:2/4]!<(! (3[ce][cf][cg] !tenuto![ca]!tenuto![cb]!<)! | %115
!f!{/b} !tenuto![da]!tenuto![dg] (3z [df][da] |{/a} !tenuto![dg]!tenuto![df] (3z [de][dg] | %117
!>(!{/g} !tenuto![cf]!tenuto![ce]!>)! (3z [Ac]!<(![Bd] | %118
 (3[ce][cf]!<)![cg] !tenuto![ca]!tenuto![cb] |!f!{/b} !tenuto![da]!tenuto![dg] (3z [df][da] | %120
{/a} !tenuto![dg]!tenuto![df] (3z ([de][dg]) |{/g} !tenuto![cf]!tenuto![ce] (3z [Ac][Bd] | %122
 (3[ce][cf][c=g] !tenuto![ca]!tenuto![cc'] |{/c'} !tenuto![fb]!tenuto![fa] (3z [df][dg] | %124
{/g} !tenuto![^Af]!tenuto![Ae] (3z [Ae][Af] |{/f} !tenuto![Be]!tenuto![Bd] z [Ac] | %126
 (3[ce][Ac][Bd] (3[ce][cf][ca] | .[dg]/z/!tenuto![Gd] z [Ac] | (3[ce][Ac][Bd] (3[ce][cf][ca] | %129
 .[dg]/z/!tenuto![Gd] (3z [ce][df] | (3[^Bg][Bf][Be] [B^d]{/d}[Bf] | (3z [ce][Bd] [Ac]{/c}[Ae] | %132
 (3z [GB][Ac] [Bd][Gf] | ([Ac][ce]) (3z!<(! [ce][cf]!<)! | (3[^Bg][Bf][Be] [B^d]{/d}[Bf] | %135
 (3z [ce][B=d] [Ac]{/c}[Ae] | (3z!f! [GB][Ac] !tenuto![Bd]!tenuto![Gf] | [Ac] z!ff! !^![ac'e']2 | %138
 (3z [GB][Ac] [Bd][Gf] | [Ac] z!ff! !^![ac'e']2 || %140
[M:3/4] !arpeggio![FA=df]2 z2 !arpeggio![F^Aef]2 | !arpeggio![FBdf] z !arpeggio![A=c_ea]2 z2 | %142
 !arpeggio![EAce] z z2 !arpeggio![EGBe] z | %143
 !arpeggio![CEA] z!ff!!8va(! !arpeggio![ac'e'a']2!8va)! !fermata!z2 |] %144
V:3
!ped! !^![A,,,A,,]2 z!ped-up! ||[M:2/4] !^![F,,,F,,] z !^![D,,,D,,] z || %2
[M:3/8]!ped! !^![C,,,C,,]2 z!ped-up! ||[M:2/4] [F,,,F,,] z [E,,,E,,] z || %4
[M:3/8]!ped! !^![A,,,A,,]2 z!ped-up! ||[M:2/4] [F,,,F,,] z [D,,,D,,] z || %6
[M:3/8]!ped! !^![C,,,C,,]2 z!ped-up! ||[M:2/4] [F,,,F,,] z [E,,,E,,] z || %8
[M:3/4]!ped! !^![A,,,A,,]2 z2 [G,,,G,,]!ped-up! z |!ped! !^![A,,,A,,]2 z2!ped-up! [B,,,B,,] z | %10
!ped! !^![A,,,A,,]2 z2!ped-up! [G,,,G,,] z |!ped! !^![A,,,A,,]2 z2!ped-up! [B,,,B,,] z | %12
!ped! !^![A,,,A,,]2 z2!ped-up! [B,,,B,,] z |!ped! !^![A,,,A,,]2 z2!ped-up! [B,,,B,,] z | %14
!ped! !^![A,,,A,,]2 z2!ped-up! [A,,,A,,] z || %15
[M:4/4] [^F,,,^F,,] z!ped! !^![E,,,E,,]2 z2!ped-up! [A,,,A,,] z || %16
[M:3/4]!ped! !^![E,,,E,,]2 z2!ped-up! [E,,E,] z |!ped! !^![A,,,A,,]2 z2!ped-up! [B,,,B,,] z | %18
!ped! !^![A,,,A,,]2 z2!ped-up! [A,,,A,,] z | [F,,F,] z [G,,G,] z [G,,,G,,] z | %20
!ped! !^![C,,C,]2 z2!ped-up! [F,,F,] z |!ped! !^![C,,C,]2 z2!ped-up! [A,,,A,,] z | %22
!ped! !^![E,,,E,,]2 z2!ped-up! [A,,,A,,] z |!ped! !^![E,,,E,,]2 z2!ped-up! [A,,,A,,] z | %24
!ped! !^![G,,,G,,]2 z2!ped-up! !^![B,,,B,,] z |!ped! !^![E,,E,]2 z2!ped-up! !^![E,,E,] z | %26
!ped! !^![A,,,A,,]2 z2!ped-up! [B,,,B,,] z |!ped! !^![A,,,A,,]2 z2!ped-up! [B,,,B,,] z | %28
!ped! !^![A,,,A,,]2 !^![B,,,B,,]2 !^![C,,C,]2 ||[M:2/4] !^![D,,D,]2 !^![^D,,^D,]2!ped-up! || %30
[M:3/4]!ped! !^![E,,E,]2 z2!ped-up! [A,,,A,,] z |!ped! !^![E,,E,]2 z2!ped-up! [A,,,A,,] z | %32
!ped! !^![E,,,E,,]2 z2!ped-up! [E,,E,] z |!ped! !^![E,,E,]2 z2!ped-up! [A,,,A,,] z | %34
!ped! !^![E,,E,]2 z2!ped-up! [A,,,A,,] z ||[M:2/4] [G,,,G,,] z [B,,,B,,] z || %36
[M:3/4]!ped!"^cresc." !^![E,,E,]2 z2!ped-up! [E,,E,] z || %37
[K:A]!ped! !arpeggio![A,,C,E,A,] z z2!ped-up!!ped! !arpeggio![F,,A,,C,F,] z!ped-up! | %38
!ped! !arpeggio![A,,C,E,A,] z!ped-up!!ped! !arpeggio![F,,A,,C,F,] z z2!ped-up! | %39
 [D,,D,][B,,,B,,] [E,,E,] z [E,,,E,,] z ||[K:C][M:3/8]!ped! !^![A,,,A,,]2 z!ped-up! || %41
[M:2/4] [F,,,F,,] z [D,,,D,,] z ||[M:3/8]!ped! !^![C,,,C,,]2!ped-up! z || %43
[M:2/4] [F,,,F,,] z [E,,,E,,] z ||[M:3/8]!ped! !^![A,,,A,,]2 z!ped-up! || %45
[M:2/4] [F,,,F,,] z [D,,,D,,] z ||[M:3/8]!ped! !^![C,,,C,,]2 z!ped-up! || %47
[M:2/4] [F,,,F,,] z [E,,,E,,] z ||[M:3/4] !^![A,,,A,,]2 z2 [B,,,B,,] z | %49
 !^![A,,,A,,]2 z2 [B,,,B,,] z | [A,,,A,,]2 z2 [A,,,A,,] z || %51
[M:4/4] [^F,,,^F,,]2 [E,,,E,,]2 z2 [A,,,A,,] z ||[M:3/4] !^![E,,,E,,]2 z2 [E,,E,] z | %53
 !^![A,,,A,,]2 z2 [B,,,B,,] z | !^![A,,,A,,]2 z2 [A,,,A,,] z | [F,,F,] z [G,,G,] z [G,,,G,,] z | %56
 !^![C,,C,]2 z2 [F,,F,] z | !^![C,,C,]2 z2 [A,,,A,,] z | !^![E,,,E,,]2 z2 [A,,,A,,] z | %59
 !^![E,,,E,,]2 z2 [A,,,A,,] z | !^![G,,,G,,]2 z2 [B,,,B,,] z | !^![E,,E,]2 z2 [E,,E,] z | %62
 !^![A,,,A,,]2 z2 [B,,,B,,] z | !^![A,,,A,,]2 z2 [A,,,A,,] z |!f! [B,,,B,,] z [C,,C,] z [D,,D,] z | %65
 [E,,E,] z [F,,F,] z [^F,,^F,] z | [E,,E,]2 z2 [A,,,A,,] z | [E,,E,]2 z2 [A,,,A,,] z | %68
!ped! !^![E,,E,]2 z2!ped-up! [E,,E,] z |!ped! [C,,C,] z z [G,CE] .E,!arpeggio!.[G,CE]!ped-up! | %70
!ped! .D,!arpeggio!.[G,B,F]!ped-up! z !arpeggio![G,B,F]2 !arpeggio![G,B,F] | %71
!ped! !^![D,,D,]2 z2!ped-up! [^D,,^D,] z |!ped! !^![E,,E,]2 z2!ped-up! [E,,E,] z || %73
[K:A] !arpeggio![A,,,C,,E,,A,,] z z2 !arpeggio![F,,,A,,,C,,F,,] z | %74
 !arpeggio![A,,,C,,E,,A,,] z !arpeggio![F,,,A,,,C,,F,,]2 z2 | %75
 .[D,,D,].[B,,,B,,] [E,,E,] z [E,,,E,,] z ||[K:C][M:3/8]!f!!ped! !^![A,,,A,,]2!ped-up! z || %77
[M:2/4] [F,,,F,,] z [D,,,D,,] z ||[M:3/8]!ped! !^![C,,,C,,]2!ped-up! z || %79
[M:2/4] [F,,,F,,] z [E,,,E,,] z ||[M:3/8]!ped! !^![A,,,A,,]2!ped-up! z || %81
[M:2/4] [F,,,F,,] z [D,,,D,,] z ||[M:3/8]!ped! !^![C,,,C,,]2!ped-up! z || %83
[M:2/4] [F,,,F,,] z [E,,,E,,] z ||[M:3/4]!mf! [A,,,A,,]2 z2 [B,,,B,,] z | %85
 !^![A,,,A,,]2 z2 [B,,,B,,] z | !^![A,,,A,,]2 z2 [A,,,A,,] z || %87
[M:4/4] [^F,,,^F,,]2!ped! !^![E,,,E,,]2 z2!ped-up! [A,,,A,,] z ||[M:3/4] [E,,,E,,]2 z2 [E,,E,] z | %89
 !^![A,,,A,,]2 z2 [B,,,B,,] z | !^![A,,,A,,]2 z2 [A,,,A,,] z | [F,,F,] z [G,,G,] z [G,,,G,,] z | %92
 !^![C,,C,]2 z2 [F,,,F,,] z | !^![C,,C,]2 z2 [A,,,A,,] z | !^![E,,,E,,]2 z2 [A,,,A,,] z | %95
 !^![E,,,E,,]2 z2 [A,,,A,,] z | !^![G,,,G,,]2 z2 [B,,,B,,] z | !^![E,,E,]2 z2 [E,,E,] z | %98
 !^![A,,,A,,]2 z2 [B,,,B,,] z | [A,,,A,,]2 z2 [A,,,A,,] z | [B,,,B,,] z [C,,C,] z [D,,D,] z | %101
 [E,,E,] z [F,,F,] z [^F,,^F,] z | [E,,E,]2 z2 [A,,,A,,] z | [E,,E,]2 z2 [A,,,A,,] z | %104
 [E,,E,]2 z2 [E,,E,] z |!ped! !arpeggio!!^![C,,E,,G,,C,] z!ped-up! z [G,CE] E,[G,CE] | %106
 D, [G,B,DF]2 [G,B,DF]2 [G,B,DF] | G,, [G,B,DF]2 [G,B,DF]2 [G,B,DF] | %108
 z [E,^G,B,DE]2 [E,G,B,DE]2 [E,G,B,DE] || %109
[K:A] !arpeggio![A,,C,E,A,] z z2 !arpeggio![F,,A,,C,F,] z | %110
 !arpeggio![A,,C,E,A,] z !arpeggio![F,,A,,C,F,] z z2 | [D,,D,][B,,,B,,] [E,,E,]2 [E,,,E,,]2 | %112
!ped! !^![A,,,A,,]2 z2!ped-up!!ped! [E,,,E,,] z!ped-up! | %113
!ped! !^![A,,,A,,]2 z2!ped-up!!f!!ped! [E,,,E,,] z!ped-up! || %114
[M:2/4]!ped! !^![A,,,A,,]2!ped-up!({E,A,)C} .E.E, | z2({E,G,)B,} .[DE].E, | z2({E,G,)B,} .[DE].E, | %117
 z2({E,A,)C} .E.E, | z2({E,A,)C} .E.E, | z2({E,G,)B,} .[DE].E, | z2({E,G,)B,} .[DE].E, | %121
 z2({E,A,)C} .E.E, | z2({A,C)E} .[=GA].A, | z2({A,D)F} .A.A, | z2({F,^A,)C} .F.F, | %125
 z2({F,B,)D} .F.F, | z2({E,A,)C} .E.E, | z2({E,G,)B,} .[DE].E, | z2({E,A,)C} .E.E, | %129
 z2!f!({E,G,)B,} .[DE].E, | z2({G,^B,)^D} .F.G, | z2({E,A,)C} .E.E, | z2({E,G,)B,} .[DE].E, | %133
 z2({E,A,)C} .E.E, | z2({G,^B,)^D} .F.G, | z2({F,A,)C} .E.E, | z2({E,G,)B,} .[DE].E, | %137
 z2({E,A,)C} .E.E, | z2({E,G,)B,} .[DE].E, | z2({F,A,)C} .E.E, || %140
[M:3/4] !arpeggio![D,,F,,A,,D,]2 z2 !arpeggio![C,,F,,^A,,C,]2 | %141
 !arpeggio![B,,,D,,F,,B,,] z !arpeggio![=F,,,A,,,=C,,=F,,]2 z2 | %142
 !arpeggio![E,,A,,C,E,] z z2 !arpeggio![E,,G,,B,,E,] z | %143
 !arpeggio![A,,C,E,A,] z !arpeggio![A,,,C,,E,,A,,]2 !fermata!z2 |] %144
V:4
 x3 ||[M:2/4] x4 ||[M:3/8] x3 ||[M:2/4] x4 ||[M:3/8] x3 ||[M:2/4] x4 ||[M:3/8] x3 ||[M:2/4] x4 || %8
[M:3/4] x6 | x6 | x6 | x6 | x6 | x6 | x6 ||[M:4/4] x8 ||[M:3/4] x6 | x6 | x6 | x6 | x6 | x6 | x6 | %23
 x6 | x6 | x6 | x6 | x6 | x6 ||[M:2/4] x4 ||[M:3/4] x6 | x6 | x6 | x6 | x6 ||[M:2/4] x4 || %36
[M:3/4] x6 ||[K:A] x6 | x6 | x6 ||[K:C][M:3/8] x3 ||[M:2/4] x4 ||[M:3/8] x3 ||[M:2/4] x4 || %44
[M:3/8] x3 ||[M:2/4] x4 ||[M:3/8] x3 ||[M:2/4] x4 ||[M:3/4] x6 | x6 | x6 ||[M:4/4] x8 || %52
[M:3/4] x6 | x6 | x6 | x6 | x6 | x6 | x6 | x6 | x6 | x6 | x6 | x6 | x6 | x6 | x6 | x6 | x6 | x6 | %70
{/d} (cB) z !arpeggio![Bf]2 !arpeggio![Bf] | x6 | x6 ||[K:A] x6 | x6 | x6 ||[K:C][M:3/8] x3 || %77
[M:2/4] x4 ||[M:3/8] x3 ||[M:2/4] x4 ||[M:3/8] x3 ||[M:2/4] x4 ||[M:3/8] x3 ||[M:2/4] x4 || %84
[M:3/4] x6 | x6 | x6 ||[M:4/4] x8 ||[M:3/4] x6 | x6 | x6 | x6 | x6 | x6 | x6 | x6 | x6 | x6 | x6 | %99
 x6 | x6 | x6 | x6 | x6 | x6 | x6 | c B3({Bc)} BA | A G2 G2 G | x6 ||[K:A] x6 | x6 | x6 | x6 | %113
 x6 ||[M:2/4] x4 | x4 | x4 | x4 | x4 | x4 | x4 | x4 | x4 | x4 | x4 | x4 | x4 | x4 | x4 | x4 | x4 | %131
 x4 | x4 | x4 | x4 | x4 | x4 | x4 | x4 | x4 ||[M:3/4] x6 | x6 | x6 | x2!8va(! x2!8va)! x2 |] %144
V:5
 x3 ||[M:2/4] x4 ||[M:3/8] x3 ||[M:2/4] x4 ||[M:3/8] x3 ||[M:2/4] x4 ||[M:3/8] x3 ||[M:2/4] x4 || %8
[M:3/4] x6 | x6 | x6 | x6 | x6 | x6 | x6 ||[M:4/4] x8 ||[M:3/4] x6 | x6 | x6 | x6 | x6 | x6 | x6 | %23
 x6 | x6 | x6 | x6 | x6 | x6 ||[M:2/4] x4 ||[M:3/4] x6 | x6 | x6 | x6 | x6 ||[M:2/4] x4 || %36
[M:3/4] x6 ||[K:A] x6 | x6 | x6 ||[K:C][M:3/8] x3 ||[M:2/4] x4 ||[M:3/8] x3 ||[M:2/4] x4 || %44
[M:3/8] x3 ||[M:2/4] x4 ||[M:3/8] x3 ||[M:2/4] x4 ||[M:3/4] x6 | x6 | x6 ||[M:4/4] x8 || %52
[M:3/4] x6 | x6 | x6 | x6 | x6 | x6 | x6 | x6 | x6 | x6 | x6 | x6 | x6 | x6 | x6 | x6 | x6 | x6 | %70
 x6 | x6 | x6 ||[K:A] x6 | x6 | x6 ||[K:C][M:3/8] x3 ||[M:2/4] x4 ||[M:3/8] x3 ||[M:2/4] x4 || %80
[M:3/8] x3 ||[M:2/4] x4 ||[M:3/8] x3 ||[M:2/4] x4 ||[M:3/4] x6 | x6 | x6 ||[M:4/4] x8 || %88
[M:3/4] x6 | x6 | x6 | x6 | x6 | x6 | x6 | x6 | x6 | x6 | x6 | x6 | x6 | x6 | x6 | x6 | x6 | x6 | %106
 x6 | x6 | E,,2- E,,2 z2 ||[K:A] x6 | x6 | x6 | x6 | x6 ||[M:2/4] x4 | !^!B,,,2- B,,, z | %116
 !^!E,,,2- E,,, z | !^!A,,,2- A,,, z | !^!A,,,2- A,,, z | !^!B,,,2- B,,, z | !^!E,,,2- E,,, z | %121
 A,,,2- A,,, z | A,,,2- A,,, z | D,,2- D,, z | F,,,2- F,,, z | B,,,2- B,,, z | A,,,2- A,,, z | %127
 E,,,2- E,,, z | A,,,2- A,,, z | E,,,2- E,,, z | G,,,2- G,,, z | A,,,2- A,,, z | E,,,2- E,,, z | %133
 A,,,2- A,,, z | G,,,2- G,,, z | A,,,2- A,,, z | E,,,2- E,,, z | A,,,2- A,,, z | E,,,2- E,,, z | %139
 A,,,2- A,,, z ||[M:3/4] x6 | x6 | x6 | x6 |] %144

